src/16/actions/image-red-eye.svg

<svg xmlns="http://www.w3.org/2000/svg" width="16" height="16" viewBox="0 0 16 16">
 <defs>
  <style id="current-color-scheme" type="text/css">
   .ColorScheme-Text { color:#565656; } .ColorScheme-Highlight { color:#5294e2; }
  </style>
 </defs>
 <path style="fill:currentColor" class="ColorScheme-Text" d="M 2.34375 0.9375 L 0.9375 2.34375 L 3.0507812 4.4570312 C 0.85068125 5.9316312 8.8817842e-16 8 0 8 C 0 8 2 13.003906 8 13.003906 C 9.1815 13.003906 10.191172 12.795422 11.076172 12.482422 L 13.65625 15.0625 L 15.0625 13.65625 L 2.34375 0.9375 z M 8 3.0039062 C 7.4761 3.0039062 6.9935969 3.0535469 6.5292969 3.1230469 L 8.4492188 5.0429688 A 3 3 0 0 1 10.964844 7.5585938 L 14.074219 10.667969 C 15.448219 9.3657688 16 8.0039063 16 8.0039062 C 16 8.0039062 14 3.0039062 8 3.0039062 z M 5.3007812 6.7070312 L 9.296875 10.703125 A 3 3 0 0 1 8 11.003906 A 3 3 0 0 1 5 8.0039062 A 3 3 0 0 1 5.3007812 6.7070312 z"/>
</svg>

<svg xmlns="http://www.w3.org/2000/svg" width="16" height="16"><defs><style id="current-color-scheme" type="text/css"></style></defs><path d="M2.344.938L.938 2.343 3.05 4.457C.85 5.932 0 8 0 8s2 5.004 8 5.004a9.098 9.098 0 0 0 3.076-.522l2.58 2.58 1.406-1.406L2.345.937zM8 3.003c-.524 0-1.006.05-1.47.119l1.92 1.92a3 3 0 0 1 2.515 2.516l3.11 3.109C15.447 9.366 16 8.004 16 8.004s-2-5-8-5zM5.3 6.707l3.997 3.996a3 3 0 0 1-1.297.3 3 3 0 0 1-3-3 3 3 0 0 1 .3-1.296z" fill="currentColor" color="#565656"/></svg>
